!!!OTL: ICH HATT EINEN KAMERADEN
!!!ARE: Europa, Mitteleuropa, Deutschland
!!!SCT: B0573
!!!YEM: Copyright 1995, estate of Helmut Schaffrath.
**kern
*ICvox
*Ivox
*M4/4
*k[f#]
*G:
{4d
=1
4g
8b
8b
4b
4a
=2
2g
4d}
{8g
8a
=3
4b
4dd
4dd
4cc
=4
2b
4r}
{8g
8a
=5
4b
4b
4b
4a
=6
4.b
8cc
4dd}
{8cc
8b
=7
4a
4a
4a
8a
8g
=8
4.a
8b
4cc}
{4dd
=9
4b
4b
4a
4a
=10
2g}
{2a
=11
4b
4dd
4a
8a
8b
=12
2g
4r}
==
!!!AGN: Staende -, Soldaten - Lied, Tod
!!!ONB: ESAC (Essen Associative Code) Database: BOEHME
!!!AMT: simple quadruple
!!!AIN: vox
!!!EED: Helmut Schaffrath
!!!EEV: 1.0
*-
